assets/home-two-img/service_3_5.svg

<svg width="50" height="50" viewBox="0 0 50 50" fill="none" xmlns="http://www.w3.org/2000/svg">
<g clip-path="url(#clip0_457_25985)">
<path d="M39.8345 33.7135H42.6212C43.0522 35.3114 44.5135 36.4911 46.2457 36.4911C48.3157 36.4911 49.9999 34.8069 49.9999 32.7369C49.9999 30.6685 48.3157 28.9856 46.2457 28.9856C44.5137 28.9856 43.0526 30.1641 42.6214 31.7604H39.8345V23.4389H42.6212C43.0522 25.0368 44.5135 26.2165 46.2457 26.2165C48.3157 26.2165 49.9999 24.5323 49.9999 22.4623C49.9999 20.3923 48.3157 18.7081 46.2457 18.7081C44.5135 18.7081 43.0522 19.8878 42.6212 21.4857H39.8107C39.5491 18.4487 36.9951 16.0568 33.8915 16.0568H33.1417V9.35264C33.1417 4.57734 29.2567 0.692383 24.4814 0.692383H15.3529C10.5776 0.692383 6.69268 4.57734 6.69268 9.35264V16.0568H5.94287C2.66602 16.0568 0 18.7229 0 21.9998V43.3648C0 46.6418 2.66602 49.3078 5.94297 49.3078H33.8916C36.957 49.3078 39.4874 46.9747 39.8013 43.991H42.6212C43.0522 45.589 44.5135 46.7687 46.2457 46.7687C48.3157 46.7687 49.9999 45.0845 49.9999 43.0145C49.9999 40.9444 48.3157 39.2603 46.2457 39.2603C44.5135 39.2603 43.0522 40.4399 42.6212 42.0379H39.8345V33.7135ZM46.2458 30.9388C47.239 30.9388 48.0469 31.7454 48.0469 32.7369C48.0469 33.73 47.239 34.538 46.2458 34.538C45.2527 34.538 44.4448 33.7301 44.4448 32.7369C44.4447 31.7454 45.2527 30.9388 46.2458 30.9388ZM46.2458 20.6612C47.239 20.6612 48.0469 21.4691 48.0469 22.4623C48.0469 23.4555 47.239 24.2634 46.2458 24.2634C45.2527 24.2634 44.4448 23.4555 44.4448 22.4623C44.4448 21.4691 45.2527 20.6612 46.2458 20.6612ZM8.6459 9.35264C8.6459 5.6543 11.6547 2.64551 15.353 2.64551H24.4815C28.1799 2.64551 31.1887 5.6543 31.1887 9.35264V16.0568H28.6063V9.35264C28.6063 7.07822 26.756 5.22793 24.4815 5.22793H15.353C13.0786 5.22793 11.2283 7.07832 11.2283 9.35264V16.0568H8.6459V9.35264ZM26.6531 16.0568H13.1814V9.35264C13.1814 8.17549 14.176 7.18105 15.353 7.18105H24.4815C25.6586 7.18105 26.6531 8.17559 26.6531 9.35264V16.0568ZM33.8916 47.3547H5.94297C3.74297 47.3547 1.95312 45.5648 1.95312 43.3648V21.9998C1.95312 19.7998 3.74297 18.01 5.94297 18.01H33.8916C35.9173 18.01 37.594 19.5278 37.8472 21.4857H31.2777C30.9965 21.4857 30.7289 21.607 30.5435 21.8185L27.6842 25.0792H22.0371C21.4978 25.0792 21.0605 25.5164 21.0605 26.0558C21.0605 26.5951 21.4978 27.0323 22.0371 27.0323H28.1266C28.4078 27.0323 28.6754 26.911 28.8608 26.6996L31.7201 23.4389H37.8813V31.7604H22.2899C21.7506 31.7604 21.3134 32.1976 21.3134 32.7369C21.3134 33.2763 21.7506 33.7135 22.2899 33.7135H37.8814V42.0379H31.7202L28.8609 38.7771C28.6756 38.5657 28.4079 38.4444 28.1267 38.4444H22.0371C21.4978 38.4444 21.0605 38.8816 21.0605 39.421C21.0605 39.9604 21.4978 40.3976 22.0371 40.3976H27.6841L30.5434 43.6583C30.7287 43.8697 30.9964 43.991 31.2776 43.991H37.8318C37.5305 45.8945 35.8785 47.3547 33.8916 47.3547ZM46.2458 41.2134C47.239 41.2134 48.0469 42.0213 48.0469 43.0145C48.0469 44.0076 47.239 44.8155 46.2458 44.8155C45.2527 44.8155 44.4448 44.0076 44.4448 43.0145C44.4448 42.0213 45.2527 41.2134 46.2458 41.2134Z" fill="#3E66F3"/>
<path d="M14.0029 23.9961H14.6579V30.6602C14.6579 31.1995 15.0951 31.6367 15.6345 31.6367C16.1738 31.6367 16.611 31.1995 16.611 30.6602V23.0195C16.611 22.4802 16.1738 22.043 15.6345 22.043H14.0029C13.4636 22.043 13.0264 22.4802 13.0264 23.0195C13.0264 23.5589 13.4636 23.9961 14.0029 23.9961Z" fill="#3E66F3"/>
<path d="M8.29824 21.8853C6.5418 21.8853 5.11279 23.3155 5.11279 25.0735V28.6066C5.11279 30.3631 6.5418 31.7921 8.29824 31.7921C10.0563 31.7921 11.4865 30.3631 11.4865 28.6066V25.0735C11.4866 23.3155 10.0563 21.8853 8.29824 21.8853ZM9.5335 28.6066C9.5335 29.2861 8.97939 29.839 8.29834 29.839C7.61885 29.839 7.06602 29.2861 7.06602 28.6066V25.0735C7.06602 24.3925 7.61885 23.8384 8.29834 23.8384C8.97939 23.8384 9.5335 24.3925 9.5335 25.0735V28.6066Z" fill="#3E66F3"/>
<path d="M8.05723 34.6675H6.42285C5.8835 34.6675 5.44629 35.1047 5.44629 35.644C5.44629 36.1834 5.8835 36.6206 6.42285 36.6206H7.08066V43.2847C7.08066 43.824 7.51787 44.2612 8.05723 44.2612C8.59658 44.2612 9.03379 43.824 9.03379 43.2847V35.644C9.03379 35.1047 8.59658 34.6675 8.05723 34.6675Z" fill="#3E66F3"/>
<path d="M14.8533 34.5122C13.0953 34.5122 11.665 35.9412 11.665 37.6977V41.2308C11.665 42.9888 13.0953 44.419 14.8533 44.419C16.6098 44.419 18.0388 42.9888 18.0388 41.2308V37.6977C18.0388 35.9412 16.6098 34.5122 14.8533 34.5122ZM16.0856 41.2308C16.0856 41.9118 15.5328 42.4659 14.8533 42.4659C14.1723 42.4659 13.6182 41.9118 13.6182 41.2308V37.6977C13.6182 37.0182 14.1723 36.4653 14.8533 36.4653C15.5328 36.4653 16.0856 37.0182 16.0856 37.6977V41.2308Z" fill="#3E66F3"/>
</g>
<defs>
<clipPath id="clip0_457_25985">
<rect width="50" height="50" fill="white"/>
</clipPath>
</defs>
</svg>

<?xml version="1.0" encoding="utf-8"?>
<!-- Generator: Adobe Illustrator 24.0.1, SVG Export Plug-In . SVG Version: 6.00 Build 0)  -->
<svg version="1.1" id="Layer_1" xmlns="http://www.w3.org/2000/svg" xmlns:xlink="http://www.w3.org/1999/xlink" x="0px" y="0px"
	 viewBox="0 0 50 50" style="enable-background:new 0 0 50 50;" xml:space="preserve">
<style type="text/css">
	.st0{fill:#11CDBD;}
</style>
<g>
	<path class="st0" d="M39.8,33.7h2.8c0.4,1.6,1.9,2.8,3.6,2.8c2.1,0,3.8-1.7,3.8-3.8c0-2.1-1.7-3.8-3.8-3.8c-1.7,0-3.2,1.2-3.6,2.8
		h-2.8v-8.3h2.8c0.4,1.6,1.9,2.8,3.6,2.8c2.1,0,3.8-1.7,3.8-3.8s-1.7-3.8-3.8-3.8c-1.7,0-3.2,1.2-3.6,2.8h-2.8
		c-0.3-3-2.8-5.4-5.9-5.4h-0.7V9.4c0-4.8-3.9-8.7-8.7-8.7h-9.1c-4.8,0-8.7,3.9-8.7,8.7v6.7H5.9C2.7,16.1,0,18.7,0,22v21.4
		c0,3.3,2.7,5.9,5.9,5.9h27.9c3.1,0,5.6-2.3,5.9-5.3h2.8c0.4,1.6,1.9,2.8,3.6,2.8c2.1,0,3.8-1.7,3.8-3.8c0-2.1-1.7-3.8-3.8-3.8
		c-1.7,0-3.2,1.2-3.6,2.8h-2.8V33.7z M46.2,30.9c1,0,1.8,0.8,1.8,1.8c0,1-0.8,1.8-1.8,1.8c-1,0-1.8-0.8-1.8-1.8
		C44.4,31.7,45.3,30.9,46.2,30.9z M46.2,20.7c1,0,1.8,0.8,1.8,1.8c0,1-0.8,1.8-1.8,1.8c-1,0-1.8-0.8-1.8-1.8
		C44.4,21.5,45.3,20.7,46.2,20.7z M8.6,9.4c0-3.7,3-6.7,6.7-6.7h9.1c3.7,0,6.7,3,6.7,6.7v6.7h-2.6V9.4c0-2.3-1.9-4.1-4.1-4.1h-9.1
		c-2.3,0-4.1,1.9-4.1,4.1v6.7H8.6V9.4z M26.7,16.1H13.2V9.4c0-1.2,1-2.2,2.2-2.2h9.1c1.2,0,2.2,1,2.2,2.2V16.1z M33.9,47.4H5.9
		c-2.2,0-4-1.8-4-4V22c0-2.2,1.8-4,4-4h27.9c2,0,3.7,1.5,4,3.5h-6.6c-0.3,0-0.5,0.1-0.7,0.3l-2.9,3.3H22c-0.5,0-1,0.4-1,1
		c0,0.5,0.4,1,1,1h6.1c0.3,0,0.5-0.1,0.7-0.3l2.9-3.3h6.2v8.3H22.3c-0.5,0-1,0.4-1,1c0,0.5,0.4,1,1,1h15.6V42h-6.2l-2.9-3.3
		c-0.2-0.2-0.5-0.3-0.7-0.3H22c-0.5,0-1,0.4-1,1c0,0.5,0.4,1,1,1h5.6l2.9,3.3c0.2,0.2,0.5,0.3,0.7,0.3h6.6
		C37.5,45.9,35.9,47.4,33.9,47.4z M46.2,41.2c1,0,1.8,0.8,1.8,1.8c0,1-0.8,1.8-1.8,1.8c-1,0-1.8-0.8-1.8-1.8
		C44.4,42,45.3,41.2,46.2,41.2z"/>
	<path class="st0" d="M14,24h0.7v6.7c0,0.5,0.4,1,1,1c0.5,0,1-0.4,1-1V23c0-0.5-0.4-1-1-1H14c-0.5,0-1,0.4-1,1
		C13,23.6,13.5,24,14,24z"/>
	<path class="st0" d="M8.3,21.9c-1.8,0-3.2,1.4-3.2,3.2v3.5c0,1.8,1.4,3.2,3.2,3.2c1.8,0,3.2-1.4,3.2-3.2v-3.5
		C11.5,23.3,10.1,21.9,8.3,21.9z M9.5,28.6c0,0.7-0.6,1.2-1.2,1.2c-0.7,0-1.2-0.6-1.2-1.2v-3.5c0-0.7,0.6-1.2,1.2-1.2
		c0.7,0,1.2,0.6,1.2,1.2V28.6z"/>
	<path class="st0" d="M8.1,34.7H6.4c-0.5,0-1,0.4-1,1c0,0.5,0.4,1,1,1h0.7v6.7c0,0.5,0.4,1,1,1c0.5,0,1-0.4,1-1v-7.6
		C9,35.1,8.6,34.7,8.1,34.7z"/>
	<path class="st0" d="M14.9,34.5c-1.8,0-3.2,1.4-3.2,3.2v3.5c0,1.8,1.4,3.2,3.2,3.2c1.8,0,3.2-1.4,3.2-3.2v-3.5
		C18,35.9,16.6,34.5,14.9,34.5z M16.1,41.2c0,0.7-0.6,1.2-1.2,1.2c-0.7,0-1.2-0.6-1.2-1.2v-3.5c0-0.7,0.6-1.2,1.2-1.2
		c0.7,0,1.2,0.6,1.2,1.2V41.2z"/>
</g>
</svg>
